icon-themes/breeze_svg/cmd/lc_config.svg

<svg viewBox="0 0 24 24" xmlns="http://www.w3.org/2000/svg"><path d="m5 4v6 8 1 1h9v-1h-8v-1-8-2h12v6h1v-9-1h-1-12z" fill="#4d4d4d"/><path d="m17 15v2h-2v1h2v2h1v-2h2v-1h-2v-2z" fill="#1d99f3"/></svg>

<svg xmlns="http://www.w3.org/2000/svg" viewBox="0 0 24 24">
 <path 
     style="fill:#4d4d4d" 
     d="M 5 4 L 5 10 L 5 18 L 5 19 L 5 20 L 14 20 L 14 19 L 6 19 L 6 18 L 6 10 L 6 8 L 18 8 L 18 14 L 19 14 L 19 5 L 19 4 L 18 4 L 6 4 L 5 4 z "
     />
 <path 
     style="fill:#1d99f3" 
     d="M 17 15 L 17 17 L 15 17 L 15 18 L 17 18 L 17 20 L 18 20 L 18 18 L 20 18 L 20 17 L 18 17 L 18 15 L 17 15 z "
     />
 </svg>
